!!!!SEGMENT: pl-sa--67-a-ii-7--003_haydn-joseph--cassatio-in-es-menuet.krn
!!!cenid: 17xx:572
!!!COM: Haydn, Joseph
!!!COM-rismid: pe55803
!!!CDT: 1732/03/31-1809/05/31
!!!CNT: Austrian
!!!OPR: Cassatio in Es
!!!OTL: Menuet
!!!OMV: 003
!!!PDT:
!!!AGN: Secular; Cassation
!!!SMS-siglum: PL-SA
!!!SMS-shelfmark: 67/A II 7
!!!SMS-shelfwork: 001-003 M
!!!SMS-variant:
!!!SMS-altvar:
!!!NIFC-rismid: 1001076830
!!!URL-scan: http://bc.bdsandomierz.pl/dlibra/publication/1338/edition/1306/content
!!!ONB-nifc: UWAGA: części Cassatio: Allegro, Adagio, Menuet, Presto
**kern	**dynam	**kern	**dynam	**kern	**dynam	**kern
*part4	*part4	*part3	*part3	*part2	*part2	*part1
*staff4	*	*staff3	*	*staff2	*	*staff1
*Iempty	*	*Iviola	*	*Ivioln	*	*Ivioln
*I"Baſso:	*	*I"Viola Obligata	*	*I"Violino 2do.	*	*I"Violino I
*I'Vc.	*	*I'Va	*	*I'Vn II	*	*I'Vn I
*clefF4	*	*clefC3	*	*clefG2	*	*clefG2
*k[b-e-a-]	*	*k[b-e-a-]	*	*k[e-b-a-]	*	*k[e-b-a-]
*c:	*	*c:	*	*c:	*	*c:
*M3/4	*	*M3/4	*	*M3/4	*	*M3/4
=1	=1	=1	=1	=1	=1	=1
*	*	*	*	*Xtuplet	*	*Xtuplet
!	!	!	!	!LO:TX:a:t=Minowet	!	!LO:SIC:o:s:=:v:all\right
!	!	!	!	!	!	!LO:TX:a:t=Problem&colon; caudy z prawej strony\GLOBAL
!	!	!LO:TX:a:t=Menuet	!	!	!	!LO:TX:a:t=Menwet
4E-\	.	4e-\	.	2e-/	.	2e-/
4G\	.	4g\	.	.	.	.
!	!	!	!	!LO:TUP:a:problem:klamra łukowa	!	!
4B-\	.	4b-\	.	12a-/L	.	12a-/L
.	.	.	.	12f/	.	12f/
.	.	.	.	12d/J	.	12d/J
=2	=2	=2	=2	=2	=2	=2
4E-\	.	4e-\	.	4e-/	.	4e-/
4r	.	4B-/	.	4r	.	4B-/
4BB-/	.	4A-/	.	4r	.	4A-/
=3	=3	=3	=3	=3	=3	=3
4E-\	.	4E-/	.	4r	.	8G/L
.	.	.	.	.	.	8B-/
4r	.	4r	.	4r	.	8e-/
.	.	.	.	.	.	8g/
!LO:TX:a:t=vi	!	!	!	!	!	!
4G\	.	4g\	.	4B-/	.	8b-/
.	.	.	.	.	.	8ee-/J
=4	=4	=4	=4	=4	=4	=4
!LO:TX:a:t=de	!	!	!	!	!	!
4F\	.	4f\	.	(4c/	.	4b-\
4BB-/	.	4B-/	.	4d/	.	4a-T\
4E-/	.	4e-\	.	4e-/)	.	4g\
=5	=5	=5	=5	=5	=5	=5
4r	.	4r	.	4r	.	4.ee-\
4G\	.	4g\	.	4e-/	.	.
.	.	.	.	.	.	(16ff\LL
.	.	.	.	.	.	16gg\JJ)
4G\	.	4g\	.	4e-/	.	8b-\
.	.	.	.	.	.	8r
=6	=6	=6	=6	=6	=6	=6
4r	.	4r	.	4r	.	4.cc\
!	!	!LO:TX:a:t=pizicato	!	!	!	!
4A-\	.	4a-\	.	4e-/	.	.
.	.	.	.	.	.	(16dd\LL
.	.	.	.	.	.	16ee-\JJ)
4A-\	.	4a-\	.	4e-/	.	8f/
.	.	.	.	.	.	8r
=7	=7	=7	=7	=7	=7	=7
4r	.	4r	.	4r	.	8.g/L
.	.	.	.	.	.	(32a-/LL
.	.	.	.	.	.	32b-/JJJ)
!	!	!	!	!	!	!LO:LB:g=original
4B-\	.	4G/	.	4e-/	.	(4e-/
4BB-/	.	4F/	.	4d/	.	4d/)
=8	=8	=8	=8	=8	=8	=8
.	.	.	.	.	.	8qqd/
4E-\	.	2E-/	.	2.e-/	.	2e-/
4BB-/	.	.	.	.	.	.
4EE-/	.	4r	.	.	.	4r
!LO:LB:g=original	!	!	!	!	!	!
=9||;;	=9||	=9:||:	=9||	=9||;;	=9||	=9||
4r	.	4r	.	4r	.	4.bb-\
4B-\	.	4b-\	.	4dd-X\	.	.
.	.	.	.	.	.	16ccc\LL
.	.	.	.	.	.	16ddd-X\JJ
4B-\	.	4b-\	.	4dd-\	.	4een\
=10	=10	=10	=10	=10	=10	=10
4A-\	.	4a-\	.	4cc\	.	(8ff\L
.	.	.	.	.	.	8cc\J)
*	*	*	*	*	*	*2\right
8r	.	8r	.	8r	.	2cc\
8A-\L	.	8a-\L	.	8cc\L	.	.
8G\	.	8g\	.	8b-\	.	.
8F\J	.	8f\J	.	8a-\J	.	.
!	!	!	!	!LO:LB:g=original	!	!
=11	=11	=11	=11	=11	=11	=11
4En\	.	4en\	.	4g/	.	(8dd-X\L
.	.	.	.	.	.	8cc\J)
4r	.	4r	.	4r	.	(8gg\L
.	.	.	.	.	.	8een\J)
!	!	!LO:LB:g=original	!	!	!	!
4E\	.	4e\	.	4c/	.	(8cc\L
.	.	.	.	.	.	8b-\J)
=12	=12	=12	=12	=12	=12	=12
!	!	!	!	!	!	!LO:TUP:a:problem:klamra łukowa
4F\	.	4f\	.	4f/	.	12a-/L
.	.	.	.	.	.	12g/
.	.	.	.	.	.	12f/J
4A-\	.	4a-\	.	4r	.	2f/
4c\	.	4dd\	.	4r	.	.
=13	=13	=13	=13	=13	=13	=13
4F\	.	4f\	.	4r	.	4.aa-\
4r	.	4r	.	4f/	.	.
.	.	.	.	.	.	16bb-\LL
.	.	.	.	.	.	16ccc\JJ
4r	.	4r	.	4an/	.	4ee-\
=14	=14	=14	=14	=14	=14	=14
!LO:TX:a:t=2	!	!LO:TX:a:t=2	!	!	!	!
!LO:N:vis=0	!	!LO:N:vis=0	!	!	!	!
1.r	.	1.r	.	4b-\	.	4.dd\
.	.	.	.	4B-/	.	.
.	.	.	.	.	.	(16ee-\LL
.	.	.	.	.	.	16ff\JJ)
.	.	.	.	4d/	.	4a-/
=15	=15	=15	=15	=15	=15	=15
.	.	.	.	4e-/	.	8g/L
.	.	.	.	.	.	8b-/J
!	!	!	!	!	!	!LO:LB:g=original
.	.	.	.	4A-/	.	12cc/L
.	.	.	.	.	.	12b-/
.	.	.	.	.	.	12a-/J
.	.	.	.	4An/	.	12g/L
.	.	.	.	.	.	12f/
.	.	.	.	.	.	12e-/J
=16	=16	=16	=16	=16	=16	=16
.	.	.	.	.	.	8qqe-/
4r	.	4r	.	4B-/	.	2d/
8B-\L	.	8b-\L	.	8b-\L	.	.
!	!	!	!	!LO:SIC:o:s:=:v: bemol nad dźwiękiem	!	!
8A-\	.	8a-\	.	8a-X\	.	.
8G\	.	8g\	.	8g\	.	4r
8F\J	.	8f\J	.	8f\J	.	.
=17	=17	=17	=17	=17	=17	=17
4E-\	.	4e-\	.	4e-/	.	2.r
4r	.	4r	.	4g/	.	.
4B-\	.	4r	.	12a-/L	p	.
.	.	.	.	12f/	.	.
.	.	.	.	12d/J	.	.
=18	=18	=18	=18	=18	=18	=18
!LO:TX:a:t=P:problem:takty zapisane powtórką	!	!	!	!	!	!
!LO:TX:a:t=e	!	!	!	!	!	!
4E-\	.	[2.B-/	p	4e-/	.	4ee-\
!LO:TX:a:t=bis	!	!	!	!	!	!
4r	.	.	.	4B-/	.	4gg\
!	!	!	!	!	!	!LO:TUP:a:problem:klamra łukowa
4BB-/	.	.	.	4A-/	.	12aa-\L
.	.	.	.	.	.	12ff\
.	.	.	.	.	.	12ee-\J
=19	=19	=19	=19	=19	=19	=19
4E-\yy	.	2.B-/_	.	4G/	.	4ee-\
4ryy	.	.	.	4g\	.	4b-\
!	!	!	!	!LO:TUP:a:problem:klamra łukowa	!	!
4BB-/yy	.	.	.	12a-\L	.	4a-\
.	.	.	.	12f\	.	.
.	.	.	.	12d\J	.	.
=20	=20	=20	=20	=20	=20	=20
4E-\	.	2.B-/]	.	4e-/	.	4g/
4r	.	.	.	4B-/	.	4gg\
!	!	!	!	!	!	!LO:TUP:a:problem:klamra łukowa
4B-\	.	.	.	4A-/	.	12aa-\L
.	.	.	.	.	.	12ff\
.	.	.	.	.	.	12dd\J
=21	=21	=21	=21	=21	=21	=21
4E-\	.	4B-/	.	4G/	.	8ee-\L
.	.	.	.	.	.	8gg\
4r	.	4r	.	4r	.	8ff\
.	.	.	.	.	.	8ee-\
4G\	.	4g\	.	4B-/	.	8dd\
.	.	.	.	.	.	8cc\J
=22	=22	=22	=22	=22	=22	=22
4F\	.	4f\	.	4c/	.	4b-/
4BB-/	.	4B-/	.	4d/	.	4a-/
4E-\	.	4e-\	.	4e-/	.	4g/
!LO:LB:g=original	!	!	!	!LO:LB:g=original	!	!
=23	=23	=23	=23	=23	=23	=23
4r	.	4r	.	4r	.	4.ee-\
!	!LO:DY:t=fo	!	!LO:DY:t=fo.	!	!	!
4G\	f	4g\	f	4e-/	.	.
.	.	.	.	.	.	(16ff\LL
.	.	.	.	.	.	16gg\JJ)
4G\	.	4g\	.	4e-/	.	4b-\
!	!	!LO:LB:g=original	!	!	!	!
=24	=24	=24	=24	=24	=24	=24
4r	.	4r	.	4r	.	4.cc\
4A-\	.	4a-\	.	4e-/	.	.
.	.	.	.	.	.	(16dd\LL
.	.	.	.	.	.	16ee-\JJ)
4A-\	.	4a-\	.	4e-/	.	4f/
!	!	!	!	!	!	!LO:LB:g=original
=25	=25	=25	=25	=25	=25	=25
4r	.	4r	.	4r	.	8.g/L
.	.	.	.	.	.	32a-/LL
.	.	.	.	.	.	32b-/JJJ
4B-\	.	4G/	.	4e-/	.	(4e-/
4BB-/	.	4F/	.	4d/	.	4d/)
=26	=26	=26	=26	=26	=26	=26
.	.	.	.	.	.	8qqd/
4E-\	.	2.E-/	.	2e-/	.	2e-/
4BB-/	.	.	.	.	.	.
4EE-/	.	.	.	4r	.	4r
=27||;;	=27||	=27||;;	=27||	=27||;;	=27||	=27||;;
*k[b-e-]	*	*k[anb-e-]	*	*k[e-b-]	*	*k[b-e-]
*M3/4	*	*M3/4	*	*M3/4	*	*M3/4
!LO:TX:a:t=Triio	!	!	!	!LO:TX:a:t=Trio	!LO:DY:a	!LO:TX:a:t=Trio
4c\	.	4cc\	.	4e-/	p	2gg\
4c\	.	4cc\	.	4e-/	.	.
4c\	.	4cc\	.	4e-/	.	8aa-X\L
.	.	.	.	.	.	8gg\J
=28	=28	=28	=28	=28	=28	=28
4c\	.	4cc\	.	4d/	.	8gg\L
.	.	.	.	.	.	8ff#X\J
4c\	.	4cc\	.	4d/	.	2ff#\
4c\	.	4cc\	.	4d/	.	.
=29	=29	=29	=29	=29	=29	=29
4Bn\	.	4bn\	.	4d/	.	4ffn\
4B\	.	4b\	.	4d/	.	(8ddd\L
.	.	.	.	.	.	8bbn\J)
4B\	.	4b\	.	4d/	.	(8gg\L
.	.	.	.	.	.	8ff\J)
=30	=30	=30	=30	=30	=30	=30
4c\	.	4cc\	.	4c/	.	(8ff\L
.	.	.	.	.	.	8ee-\J)
4C/	.	4c/	.	4r	.	4ee-\
4r	.	4r	.	4r	.	4r
!	!	!	!	!LO:LB:g=original	!	!
=31	=31	=31	=31	=31	=31	=31
2.r	.	4f'\	.	4dd\|	.	2.r
.	.	4f'\	.	4dd\|	.	.
.	.	4f'\	.	4dd\|	.	.
=32	=32	=32	=32	=32	=32	=32
*2\right	*	*2\right	*	*2\right	*	*
!	!	!	!	!LO:SIC:o:s:=:v:bemol nad dźwiękiem	!LO:DY:a	!
2F\	.	2d\	.	2bn\	f	4.aa-X\
.	.	.	.	.	.	8bn\
4E-\	.	4e-\	.	4g/	.	4cc\
!	!	!	!	!	!	!LO:LB:g=original
=33	=33	=33	=33	=33	=33	=33
!	!	!	!	!	!LO:DY:a	!LO:TX:a:t=1
2.r	.	4f'\	.	4dd\	p	2.r
.	.	4f'\	.	4dd\	.	.
.	.	4f'\	.	4dd\	.	.
!	!	!LO:LB:g=original	!	!	!	!
=34	=34	=34	=34	=34	=34	=34
!	!	!	!	!	!LO:DY:a	!
2F\	.	2d\	.	2bn\	f	4.aa-X\
.	.	.	.	.	.	8bn\
4E-\	.	4e-\	.	4g/	.	4cc\
!LO:LB:g=original	!	!	!	!	!	!
=35	=35	=35	=35	=35	=35	=35
4r	.	4r	.	4r	.	8.dd\L
.	.	.	.	.	.	16ee-\Jk
4G\	.	4g\	.	4e-/	.	4cc\
4GG/	.	4G/	.	4d/	.	4bn\
=36	=36	=36	=36	=36	=36	=36
.	.	.	.	.	.	8qqb-/
4C/	.	4c/	.	2c/	.	2cc\
4GG/	.	4G/	.	.	.	.
4C/	.	4c/	.	4r	.	4r
=37:||:	=37||	=37:||:	=37||	=37||;;	=37||	=37||
4r	.	4r	.	8.e-/L	.	4r
.	.	.	.	16g/Jk	.	.
4r	.	4r	.	4e-/	.	4r
4GG/	.	4G/	.	4G/	.	4B-/
=38	=38	=38	=38	=38	=38	=38
4AA-X/	.	4A-X/	.	4A/	.	4A-X/
4r	.	4r	.	4cc\	.	4a-X/
4r	.	4r	.	4cc\	.	4a-/
=39	=39	=39	=39	=39	=39	=39
4r	.	4r	.	8.f/L	.	4r
.	.	.	.	16a/Jk	.	.
4r	.	4r	.	4f/	.	4r
!	!	!	!	!	!	!LO:TX:a:t=vi
(4AAn/	.	4An/	.	(4An/	.	4An/
=40	=40	=40	=40	=40	=40	=40
!	!	!	!	!	!	!LO:TX:a:t=de
4BB-/)	.	4B-/	.	4B-/)	.	4d/
4r	.	4r	.	4dd\	.	4b-\
4r	.	4r	.	4dd\	.	4b-\
=41	=41	=41	=41	=41	=41	=41
4BB-/	.	2.dd\	.	4r	.	4r
!	!	!	!	!	!LO:DY:a	!
4r	.	.	.	(4a-X'/	p	4ff\|
4r	.	.	.	4a-'/)	.	4ff\|
!	!	!	!	!LO:LB:g=original	!	!
=42	=42	=42	=42	=42	=42	=42
4BB-/	.	2.ee-\	.	4r	.	4r
!	!	!	!	!	!	!LO:TX:a:t=e
4r	.	.	.	(4f'/	.	4ee-\
!	!	!	!	!	!	!LO:TX:a:t=e
4r	.	.	.	4f'/)	.	4ee-\
!	!	!	!	!	!	!LO:LB:g=original
=43	=43	=43	=43	=43	=43	=43
!LO:TX:a:t=P:problem:takty zapisane powtórką	!	!	!	!	!	!
4BB-/	.	2.a-X\	.	4r	.	4r
!	!	!	!	!	!	!LO:TX:a:t=f
4r	.	.	.	(4d'/	.	4f/|
!	!	!	!	!	!	!LO:TX:a:t=f
4r	.	.	.	4d'/)	.	4f/|
=44	=44	=44	=44	=44	=44	=44
4BB-/yy	.	2.g\	.	4r	.	4r
4ryy	.	.	.	(4e-'/	.	4g/|
4ryy	.	.	.	4e-'/)	.	4g/|
=45	=45	=45	=45	=45	=45	=45
4r	.	8.f\L	.	4r	.	8.f/L
.	.	16a-X\Jk	.	.	.	16a-X/Jk
!	!	!LO:LB:g=original	!	!	!	!
!	!	!	!	!	!LO:DY:a	!
4BB-/	.	4e-\	.	4e-/	f	4e-/
4BB-/	.	4d\	.	4d/	.	4d/
=46	=46	=46	=46	=46	=46	=46
.	.	8qqd/	.	8qqd/	.	8qqd/
4E-\	.	2e-\	.	2e-/	.	2e-/
8G\L	.	.	.	.	.	.
8F\	.	.	.	.	.	.
8E-\	.	4r	.	4r	.	4r
8D\J	.	.	.	.	.	.
=47	=47	=47	=47	=47	=47	=47
!	!	!	!LO:DY:t=p&colon;	!	!LO:DY:a	!
4C/	.	4c\	p	4e-/	p	2gg\
4c\	.	4cc\	.	4e-/	.	.
4c\	.	4cc\	.	4e-/	.	(8aa-X\L
.	.	.	.	.	.	8gg\J)
!LO:LB:g=original	!	!	!	!	!	!
=48	=48	=48	=48	=48	=48	=48
4c\	.	4cc\	.	4d/	.	8gg\L
.	.	.	.	.	.	8ff#X\J
4c\	.	4cc\	.	4d/	.	2ff#\
4c\	.	4cc\	.	4d/	.	.
=49	=49	=49	=49	=49	=49	=49
4Bn\	.	4bn\	.	4d/	.	4ffn\
4B\	.	4b\	.	4d/	.	8ddd\L
.	.	.	.	.	.	(8bbn\
4B\	.	4b\	.	4d/	.	8gg\
.	.	.	.	.	.	8ff\J)
=50	=50	=50	=50	=50	=50	=50
4c\	.	4cc\	.	4c/	.	(8ff\L
.	.	.	.	.	.	8ee-\J)
4C/	.	4c/	.	4r	.	4ee-\
4r	.	4r	.	4r	.	4r
!	!	!	!	!	!	!LO:LB:g=original
=51	=51	=51	=51	=51	=51	=51
!LO:TX:a:t=1	!	!	!LO:DY:t=p&colon;	!	!	!
2.r	.	(4f`\	p	4dd\	.	2.r
.	.	4f`\	.	4dd\	.	.
.	.	4f`\)	.	4dd\	.	.
=52	=52	=52	=52	=52	=52	=52
!	!	!	!LO:DY:t=fo	!	!LO:DY:a	!
2F\	.	2d\	f	2bn\	f	4.aa-X\
.	.	.	.	.	.	8bn\
4E-\	.	4e-\	.	4g/	.	4cc\
=53	=53	=53	=53	=53	=53	=53
!LO:TX:a:t=1	!	!	!	!	!LO:DY:a	!
2.r	.	4f\	.	4dd\	p	2.r
.	.	4f\	.	4dd\	.	.
.	.	4f\	.	4dd\	.	.
!	!	!	!	!LO:LB:g=original	!	!
=54	=54	=54	=54	=54	=54	=54
!	!	!	!	!	!LO:DY:a	!
2F\	.	2d\	.	2bn\	f	4.aa-X\
.	.	.	.	.	.	8bn\
4E-\	.	4e-\	.	4g/	.	4cc\
=55	=55	=55	=55	=55	=55	=55
4r	.	4r	.	4r	.	8.dd\L
.	.	.	.	.	.	16ee-\Jk
4G\	.	4g\	.	4e-/	.	4cc\
4GG/	.	4G/	.	4d/	.	4bn\
!	!	!LO:LB:g=original	!	!	!	!
=56	=56	=56	=56	=56	=56	=56
.	.	.	.	8qqd/	.	8qqb-/
!LO:TX:b:t=c	!	!	!	!	!	!
4E-/ 4C/	.	4c/	.	2c/	.	2cc\
4GG/	.	4G/	.	.	.	.
4CC/	.	4C/	.	4r	.	4r
!LO:TX:t=Menuet \nDa Capo	!	!LO:TX:t=Menuet Da capo	!	!	!	!LO:TX::t=Menuet Da Capo
==;;	==	==;;	==	==;;	==	==;;
*-	*-	*-	*-	*-	*-	*-
!!!system-decoration: [(s1,s2,s3,s4)]
!!!RDF**kern: > = above
!!!RDF**kern: < = below
!!!RDF**dynam: p = pia
!!!RDF**dynam: f = for
!!!EED: Leszek Kubiak
!!!EST: 2020-11-27
!!!AIN: 1 empty 1 viola 2 violn
!!!ENC: Berenika Jozajtis
!!!END: 2020-05-27
!!!RDF**kern: | = vertical stroke
